symbols/web/local_parking/materialsymbolsrounded/local_parking_grad200_24px.svg

<svg xmlns="http://www.w3.org/2000/svg" height="24" width="24"><path d="M8 21.75q-1.125 0-1.887-.762-.763-.763-.763-1.888V4.85q0-1.125.763-1.888Q6.875 2.2 8 2.2h5.1q2.825 0 4.763 1.937Q19.8 6.075 19.8 8.9t-1.937 4.788Q15.925 15.65 13.1 15.65h-2.45v3.45q0 1.1-.763 1.875-.762.775-1.887.775Zm2.65-11.4h2.45q.6 0 1-.425t.4-1.025q0-.6-.4-1t-1-.4h-2.45Z"/></svg>

<svg xmlns="http://www.w3.org/2000/svg" height="24" width="24"><path d="M8 21.75Q6.875 21.75 6.113 20.988Q5.35 20.225 5.35 19.1V4.85Q5.35 3.725 6.113 2.962Q6.875 2.2 8 2.2H13.1Q15.925 2.2 17.863 4.137Q19.8 6.075 19.8 8.9Q19.8 11.725 17.863 13.688Q15.925 15.65 13.1 15.65H10.65V19.1Q10.65 20.2 9.887 20.975Q9.125 21.75 8 21.75ZM10.65 10.35H13.1Q13.7 10.35 14.1 9.925Q14.5 9.5 14.5 8.9Q14.5 8.3 14.1 7.9Q13.7 7.5 13.1 7.5H10.65Z"/></svg>
